svgs/sharp-light/right-left.svg

<svg xmlns="http://www.w3.org/2000/svg" viewBox="0 0 512 512"><!--! Font Awesome Pro 6.6.0 by @fontawesome - https://fontawesome.com License - https://fontawesome.com/license (Commercial License) Copyright 2024 Fonticons, Inc. --><path d="M512 144l-22.6-22.6L400 32l-16 0-32 0 0 32 0 64L16 128 0 128l0 32 16 0 336 0 0 64 0 32 32 0 16 0 89.4-89.4L512 144zM386.7 64l80 80-80 80-2.7 0 0-160 2.7 0zM0 368l22.6 22.6L112 480l16 0 32 0 0-32 0-64 336 0 16 0 0-32-16 0-336 0 0-64 0-32-32 0-16 0L22.6 345.4 0 368zm125.3 80l-80-80 80-80 2.7 0 0 160-2.7 0z"/></svg>

<svg xmlns="http://www.w3.org/2000/svg" viewBox="0 0 512 512"><!--! Font Awesome Pro 6.4.2 by @fontawesome - https://fontawesome.com License - https://fontawesome.com/license (Commercial License) Copyright 2023 Fonticons, Inc. --><path d="M512 144l-22.6-22.6L400 32H384 352V64v64H16 0v32H16 352v64 32h32 16l89.4-89.4L512 144zM386.7 64l80 80-80 80H384V64h2.7zM0 368l22.6 22.6L112 480h16 32V448 384H496h16V352H496 160V288 256H128 112L22.6 345.4 0 368zm125.3 80l-80-80 80-80H128V448h-2.7z"/></svg>
